packages/icons/web/receipt_small.svg

<svg width="24" height="24" viewBox="0 0 24 24" fill="none" xmlns="http://www.w3.org/2000/svg">
<path d="M9 12H15" stroke="#212933" stroke-width="2" stroke-linecap="round" stroke-linejoin="round"/>
<path d="M9 9H15" stroke="#212933" stroke-width="2" stroke-linecap="round" stroke-linejoin="round"/>
<path d="M6 5V4C5.44772 4 5 4.44772 5 5H6ZM6 19H5C5 19.3534 5.18656 19.6806 5.49072 19.8606C5.79487 20.0406 6.17145 20.0467 6.48126 19.8766L6 19ZM9 17.3529L9.48126 16.4764C9.18152 16.3118 8.81848 16.3118 8.51874 16.4764L9 17.3529ZM12 19L11.5187 19.8766C11.8185 20.0411 12.1815 20.0411 12.4813 19.8766L12 19ZM15 17.3529L15.4813 16.4764C15.1815 16.3118 14.8185 16.3118 14.5187 16.4764L15 17.3529ZM18 19L17.5187 19.8766C17.8285 20.0467 18.2051 20.0406 18.5093 19.8606C18.8134 19.6806 19 19.3534 19 19H18ZM18 5H19C19 4.44772 18.5523 4 18 4V5ZM5 5V19H7V5H5ZM6.48126 19.8766L9.48126 18.2295L8.51874 16.4764L5.51874 18.1234L6.48126 19.8766ZM8.51874 18.2295L11.5187 19.8766L12.4813 18.1234L9.48126 16.4764L8.51874 18.2295ZM12.4813 19.8766L15.4813 18.2295L14.5187 16.4764L11.5187 18.1234L12.4813 19.8766ZM14.5187 18.2295L17.5187 19.8766L18.4813 18.1234L15.4813 16.4764L14.5187 18.2295ZM19 19V5H17V19H19ZM18 4H6V6H18V4Z" fill="#212933"/>
</svg>

<svg width="24" height="24" fill="none" xmlns="http://www.w3.org/2000/svg">
    <path d="M9 12h6M9 9h6" stroke="currentColor" stroke-width="2" stroke-linecap="round" stroke-linejoin="round"/>
    <path d="M6 5V4a1 1 0 00-1 1h1zm0 14H5a1 1 0 001.481.877L6 19zm3-1.647l.481-.877a1 1 0 00-.962 0l.481.877zM12 19l-.481.877a1 1 0 00.962 0L12 19zm3-1.647l.481-.877a1 1 0 00-.962 0l.481.877zM18 19l-.481.877A1 1 0 0019 19h-1zm0-14h1a1 1 0 00-1-1v1zM5 5v14h2V5H5zm1.481 14.877l3-1.647-.962-1.754-3 1.647.962 1.754zM8.52 18.23l3 1.647.962-1.754-3-1.647-.962 1.754zm3.962 1.647l3-1.647-.962-1.754-3 1.647.962 1.754zm2.038-1.647l3 1.647.962-1.754-3-1.647-.962 1.754zM19 19V5h-2v14h2zM18 4H6v2h12V4z" fill="currentColor"/>
</svg>
